Numix/48/actions/mail-attachment.svg

<?xml version="1.0" encoding="UTF-8" standalone="no"?>
<svg
   xmlns:dc="http://purl.org/dc/elements/1.1/"
   xmlns:cc="http://creativecommons.org/ns#"
   xmlns:rdf="http://www.w3.org/1999/02/22-rdf-syntax-ns#"
   xmlns:svg="http://www.w3.org/2000/svg"
   xmlns="http://www.w3.org/2000/svg"
   xmlns:sodipodi="http://sodipodi.sourceforge.net/DTD/sodipodi-0.dtd"
   xmlns:inkscape="http://www.inkscape.org/namespaces/inkscape"
   width="48"
   height="48"
   viewBox="0 0 48 48"
   id="svg2"
   version="1.1"
   inkscape:version="0.91 r"
   sodipodi:docname="mail-attachment.svg">
  <metadata
     id="metadata28">
    <rdf:RDF>
      <cc:Work
         rdf:about="">
        <dc:format>image/svg+xml</dc:format>
        <dc:type
           rdf:resource="http://purl.org/dc/dcmitype/StillImage" />
        <dc:title />
      </cc:Work>
    </rdf:RDF>
  </metadata>
  <defs
     id="defs26" />
  <sodipodi:namedview
     pagecolor="#ffffff"
     bordercolor="#666666"
     borderopacity="1"
     objecttolerance="10"
     gridtolerance="10"
     guidetolerance="10"
     inkscape:pageopacity="0"
     inkscape:pageshadow="2"
     inkscape:window-width="1920"
     inkscape:window-height="1056"
     id="namedview24"
     showgrid="true"
     inkscape:zoom="11.313708"
     inkscape:cx="5.3109933"
     inkscape:cy="16.634222"
     inkscape:window-x="0"
     inkscape:window-y="24"
     inkscape:window-maximized="1"
     inkscape:current-layer="svg2"
     showguides="false">
    <inkscape:grid
       type="xygrid"
       id="grid4186" />
  </sodipodi:namedview>
  <path
     style="opacity:1;fill:#808080;fill-opacity:1;fill-rule:nonzero;stroke:none;stroke-width:0.2;stroke-linecap:round;stroke-linejoin:miter;stroke-miterlimit:4;stroke-dasharray:none;stroke-dashoffset:0;stroke-opacity:1"
     d="m 26.5,4.9999768 c -1.122739,0 -2.245477,0.2890761 -3.25,0.8691407 C 21.240955,7.0292465 20,9.1779791 20,11.498023 l 0,20.501555 c 0,1.426787 0.764437,2.751234 2,3.464844 1.235563,0.71361 2.764437,0.71361 4,0 1.235563,-0.71361 2,-2.038057 2,-3.464844 L 28,17 c 0,-0.554 -0.446,-1 -1,-1 l -1,0 c -0.554,0 -1,0.446 -1,1 l 0,14.999578 c 0,0.360184 -0.188558,0.68731 -0.5,0.867188 -0.311442,0.179874 -0.688558,0.179875 -1,0 C 23.188558,32.686889 23,32.359762 23,31.999578 l 0,-20.501555 c 0,-1.253246 0.665034,-2.4047325 1.75,-3.0312493 1.084966,-0.6265168 2.415034,-0.6265168 3.5,0 C 29.334966,9.0932905 30,10.244777 30,11.498023 L 30,34 c 0,2.146385 -1.141525,4.122192 -3,5.195312 -1.858475,1.073122 -4.141525,1.073122 -6,0 C 19.141525,38.122192 18,36.146385 18,34 l 0,-19 c 0,-0.554 -0.446,-1 -1,-1 l -1,0 c -0.554,0 -1,0.446 -1,1 l 0,19 c 0,3.213244 1.717459,6.188228 4.5,7.794922 2.782541,1.606694 6.217459,1.606694 9,0 C 31.282541,40.188228 33,37.213244 33,34 L 33,11.498023 C 33,9.1779791 31.759045,7.0292465 29.75,5.8691175 28.745477,5.2890528 27.622739,4.9999768 26.5,4.9999768 Z"
     id="rect4148"
     inkscape:connector-curvature="0"
     sodipodi:nodetypes="ssccssccssccssccssccssccssccssccss" />
</svg>

<svg xmlns="http://www.w3.org/2000/svg" viewBox="0 0 48 48">
 <path d="m 26.5 5 c -1.123 0 -2.245 0.289 -3.25 0.869 c -2.01 1.16 -3.25 3.309 -3.25 5.629 l 0 20.502 c 0 1.427 0.764 2.751 2 3.465 1.236 0.714 2.764 0.714 4 0 1.236 -0.714 2 -2.038 2 -3.465 l 0 -15 c 0 -0.554 -0.446 -1 -1 -1 l -1 0 c -0.554 0 -1 0.446 -1 1 l 0 15 c 0 0.36 -0.189 0.687 -0.5 0.867 -0.311 0.18 -0.689 0.18 -1 0 c -0.311 -0.18 -0.5 -0.507 -0.5 -0.867 l 0 -20.502 c 0 -1.253 0.665 -2.405 1.75 -3.03 1.085 -0.627 2.415 -0.627 3.5 0 c 1.085 0.627 1.75 1.778 1.75 3.03 l 0 22.502 c 0 2.146 -1.142 4.122 -3 5.195 -1.858 1.073 -4.142 1.073 -6 0 c -1.858 -1.073 -3 -3.049 -3 -5.195 l 0 -19 c 0 -0.554 -0.446 -1 -1 -1 l -1 0 c -0.554 0 -1 0.446 -1 1 l 0 19 c 0 3.213 1.717 6.188 4.5 7.795 2.783 1.607 6.217 1.607 9 0 c 2.783 -1.607 4.5 -4.582 4.5 -7.795 l 0 -22.502 c 0 -2.32 -1.241 -4.469 -3.25 -5.629 -1 -0.58 -2.127 -0.869 -3.25 -0.869" style="fill:#808080;opacity:1;fill-opacity:1;stroke:none;fill-rule:nonzero"/>
</svg>
